X:76
T:Sandy River Belle
C: Traditional
R: Reel
M: 4/4
L: 1/8
K: G
ef|:"G"[Bg]age d2ef|gabg "C"age[Bf]|"G"[Bg]aged2ed|"A"ea2b "D"a2e[_Bf]|
|"G"[Bg]aged2ef|gabg "C"age[Bf]|"G"[Bg]aged2ed|1"D"BGAF "G"G2 ef:|2 "D"BGAF "G"G2 (3DEF |]
|:"G"G2E2 DDEF|"Em"GGBG ed2B|"G"G2E2D2E2|"D"FEF2d3B|
|"G"G2E2DDEF|"Em"GGBG ed2e/f/|"G"gage "C"dded|1 "D"BGAF "G"G2 (3DEF :|2"D"BGAF "G"G4|]


